!!!OTL: Ich schie&szlig; den Hirsch im wilden Forst (2-28), S. 73f
!!!id: K1114
**kern
*clefG2
*k[f#]
*G:
{8b
=1
8.b
16e
8.e
16e
=2
8.e
16e
8.e
16B
=3
8.e
16f#
8.g
16f#
=4
4e}
8r
=5
{8b
=6
8.b
16e
8.e
16e
=7
8.e
16e
8.e
16e
=8
8.d
16d
8.b
16a
=9
4g}
8r
=10
{8b
=11
8.b
16g
8.ee
16cc
=12
8.b
16g
8.e
16b
=13
8.b
16g
8.ee
16cc
=14
4b
4dd
=15
4b}
8r
=16
{8d
=17
*M6/8
4g
8a
4b
8cc
=18
4ee
8cc
4b
8b
=19
4b
8a
4cc
8b
=20
4.g}
4r
=21
{8d
=22
4g
8a
4b
8cc
=23
4ee
8dd
4b
8b
=24
4b
8a
4cc
8b
=25
4.g}
4r
==
*-
!!!minrhy: 16
!!!meters: 2/4 6/8 ]  ZZ[5
!!!cut: Ich schie&szlig; den Hirsch im wilden Forst (2-28), S. 73f
!!!reg: Luxemburg
!!!trd: KINTZELE, Guillaume: An der Ucht, Bd. 2, Luxemburg 1927
!!!rhy1: X_  X_.XX_.X  X_.XX_.X  X_.XX_.X  X__0_
!!!rhy2: X_  X_.XX_.X  X_.XX_.X  X_.XX_.X  X__0_
!!!key: K1114  16  G 2/4 6/8 ]  ZZ[5
!!!mod: HEPTATONIK IONISCH]  AMBITUS[11
!!!kad: -61311
!!!akz: 3-6-6-6_3-6-51_33333_1363341_1363341_
!!!fot: 'a__b__c__d__dv_
!!!for: 'a__a__aw_b__b__
!!!fok: 'Sd_\__^__^a_^a_
!! PHRAS[AUFTAKTIG]
!!!fkt: Jagd
!!!bem: in der Quelle mit einer 2. Stimme versehen
!! KINTZELE
!! PR[37] 2K[1] 2G[5] 3K[6] 3G[2] 4A[7] 4Ü[0] 5A[0] 6K[1] 6G[0]
!! 7K[0] 7G[0] 8A[0] MEHR[0] SI[21] ABS[120] SR[6] SP[15]
!! ST[24] 2k[13] 2g[25] 3k[3] 3g[2] 4d[0] 4ü[0] 5d[0] 6k[0] 6g[0]
!! 7k[0] 7g[0] 8d[0] mehr[0] si[43] dm[-22] sr[38] sp[4]
!! 1F[9] 2F[48] 3F[17] 4F[4] LF[0] 2P[9] 3P[9] 4P[0] TRI[0] DF[7] AB[133]
!! TF[0] U3K[0] U3[0] U4[0] U4Ü[0] U5[0] U6K[0] U6[0] U7K[0] U7[0]
!! N1[0] N2K[0] N2[10] N3K[0] N3[15] N4[13] N4Ü[0] N5[26] N6K[0] N6[10]
!!!n7k: 0] N7[8] O1[14] O2K[0] O2[2] O3K[0] O3[2] HÖ[0
!!!RNB: symbol: &szlig; = sz ligature (UTF-8: ÃŸ)
